X: 13758
T: Forgotten Daze
R: reel
M: 4/4
K: Dmixolydian
d2cA GE~E2|A2GE A2D2|d2cA GE~E2|1 A2GE DEFA:|2 A2GE D4||
c3d eg~g2|gaag egge|c3d eg~g2|gage d3e|
c3d eg~g2|gaag egge|f2ed cAG2|Add^c defe||

